svg/Filled/close_filled.svg

<svg viewBox="0 0 24 24" xmlns="http://www.w3.org/2000/svg" width="24" height="24"><path d="M6.9 6.9a1.2 1.2 0 0 1 1.7 0l3.4 3.41 3.4-3.4a1.2 1.2 0 0 1 1.7 1.7L13.7 12l3.4 3.4.09.09a1.2 1.2 0 0 1-1.7 1.69l-.08-.08-3.4-3.4-3.41 3.4-.1.08a1.2 1.2 0 0 1-1.68-1.68l.08-.1 3.4-3.4-3.4-3.4a1.2 1.2 0 0 1 0-1.7"/></svg>

<svg viewBox="0 0 24 24" xmlns="http://www.w3.org/2000/svg" width="24" height="24"><path d="M6.9 6.9A1.2 1.2 0 0 1 8.6 6.9L12 10.31L15.4 6.91A1.2 1.2 0 0 1 17.1 8.61L13.7 12L17.19 15.49A1.2 1.2 0 0 1 15.49 17.18L12.01 13.7L8.5 17.18A1.2 1.2 0 0 1 6.82 15.5L10.3 12L6.9 8.6A1.2 1.2 0 0 1 6.9 6.9"/></svg>
